X:34
T: AUF AUF WER DEUTSCHE FREIHEIT LIEBET
N: B0043
O: Europa, Mitteleuropa, Deutschland
R: Kriegs -, Sieges -, Soldaten - Lied
M: 4/4
L: 1/16
K: Eb
B2 | e6E2E3FG3A | B3=AB4z2
B2G2E2 | c6c2B6A2 | G8z6
B2 | e6c2=A3FG3A | B3=AB4z2
B2B2d2 | c6c2f4=A4 | B8z2
B2B2B2 | c6c2B6B2 | A4A4z2
F2F2A2 | G6B2B4A2G2 | F8z2
B2c2d2 | e6e2f6A2 | A4G4z2
e2e2e2 | F6c2B4A4 | G8z2
e2d3e | c4A4F4B4 | E8z6

